X: 274
T: Willie Coleman's (flute)
R: jig
I: Flute
S: amazoncreek.com 2009-11-2
M: 6/8
L: 1/8
K: G
A |\
"sl"B2G {B}AGE | {A}GED  "sl"G2"t"d | edB dgb | "^"age "^"dBA |\
 "^"BzB {B}AGE | {A}GED      G2d    | edB dBA |    BGG    G3 :|
|:\
~g3 edB | dgb "^"age | "sl"~g3 edB | GB/c/d     e2d |\
~g3 edB | dgb "^"age |     dBd gdB | "^"AGF "sl"G3 :|
